!!!!SEGMENT: Wil3010-A_laventure_lentrepris.krn
!!!id: Wil3010
!!!AGN: Chanson
!!!SCT: Seay (1960)
!!!voices: 4
!!!COM: Adrian Willaert
!!!OTL: A l'aventure, l'entrepris
**kern	**kern	**kern	**kern
*part4	*part3	*part2	*part1
*staff4	*staff3	*staff2	*staff1
*I"Bassus	*I"Tenor	*I"Altus	*I"Superius
*I'B	*I'T	*I'A	*I'S
*clefF4	*clefGv2	*clefGv2	*clefG2
*k[b-]	*k[b-]	*k[b-]	*k[b-]
*F:	*F:	*F:	*F:
*M2/1	*M2/1	*M2/1	*M2/1
*met(C|)	*met(C|)	*met(C|)	*met(C|)
=1	=1	=1	=1
2r	1G	0r	1g
2G	.	.	.
2D	2A	.	2f
2G	2B-y	.	2g
=2	=2	=2	=2
2.F	2.c	0r	2.a
4G	4B-y	.	8gL
.	.	.	8fJ
2A	2c	.	2e
2D	2d	.	2f
=3	=3	=3	=3
2E	2c	2r	2g
2F	2c	2f	2a
2BB-y	2B-y	2f	2d
2F	2c	2f	2a
=4	=4	=4	=4
2F	2A	2.c	2a
2F	2F	.	2a
.	.	4d	.
1C	1c	2e	2.g
.	.	2e	.
.	.	.	4a
=5	=5	=5	=5
1G	2B-y	2.d	2b-y
.	2.d	.	2b-y
.	.	4e	.
2F	.	4f	2a
.	4c	4e	.
[2G	4B-y	4d	[2b-y
.	4A	4c	.
=6	=6	=6	=6
4G]	1G	2B-y	4b-]
4F	.	.	4a
4E	.	1d	4g
4D	.	.	4f
1E	1G	.	1g
.	.	2c#i	.
=7	=7	=7	=7
1D	0A	1d	0f#X
2r	.	2r	.
2D	.	2d	.
=8	=8	=8	=8
2F	1r	2c	2r
2G	.	2B-y	2d
1E	2r	1c	2g
.	2G	.	2g
=9	=9	=9	=9
1D	2A	2d	2f
.	2B-y	1d	2f
1r	1G	.	2b-y
.	.	4c	2b-y
.	.	4B-y	.
=10	=10	=10	=10
2r	2F	2c	4a
.	.	.	4g
2F	2.f	2c	4a
.	.	.	4b-y
2A	.	2F	2cc
.	4e	.	.
2B-y	[2d	[2f	2f
=11	=11	=11	=11
2G	2d]	2f]	2g
2G	4c	2e	1b-y
.	4B-y	.	.
2F	1c	1f	.
2F	.	.	2a
=12	=12	=12	=12
2BB-y	1B-y	1d	1b-y
2BB-y	.	.	.
2B-y	2r	2r	1r
2A	2F	2c	.
=13	=13	=13	=13
2.G	2.B-y	2d	0r
.	.	2G	.
4F	4A	.	.
2E-X	2G	1B-y	.
2D	2F	.	.
=14	=14	=14	=14
2C	2E	2A	1r
2BB-y	1D	1G	.
1AA	.	.	2r
.	2C	2F#i	2a
=15	=15	=15	=15
1.GG	2D	2G	2.b-y
.	2G	1d	.
.	.	.	4a
.	2.B-y	.	2g
2BB-y	.	2d	2f
.	4A	.	.
=16	=16	=16	=16
2C	2G	2c	2e
2D	2F	2B-y	1d
1AA	1E	1A	.
.	.	.	2c#i
=17	=17	=17	=17
2r	2D	1F	1d
2D	2A	.	.
1D	2B-y	2r	2r
.	[2A	2f	2dd
=18	=18	=18	=18
1BB-y	4A]	2f	2dd
.	4G	.	.
.	4G	2d	2dd
.	4F	.	.
2AA	1A	2e	4cc
.	.	.	4b-y
2A	.	2c	4a
.	.	.	4g
=19	=19	=19	=19
1B-y	2r	2d	2f
.	2d	1f	2b-y
1G	2d	.	2b-y
.	2B-y	2e	2b-y
=20	=20	=20	=20
2F	2c	2f	4a
.	.	.	4g
2F	2A	2d	4f
.	.	.	4e
2G	2B-y	4d	2d
.	.	4c	.
2G	[2d	4B-y	2g
.	.	4A	.
=21	=21	=21	=21
1E	2d]	2G	2g
.	2c#i	2G	2g
2D	[1d	1A	4f
.	.	.	4e
2D	.	.	4d
.	.	.	4c
=22	=22	=22	=22
2G	1d]	2G	2B-y
2G	.	2d	2b-y
1E-X	2r	2g	2b-y
.	2G	2g	2b-y
=23	=23	=23	=23
1C	2c	1e	4a
.	.	.	4g
.	2c	.	1g
1D	1A	1d	.
.	.	.	2f#i
=24	=24	=24	=24
2GG	1G	2r	1g
2C	.	2e-X	.
2C	2r	2e-i	1r
2C	2G	2e-i	.
=25	=25	=25	=25
0GG	2G	1.d	1b-y
.	2G	.	.
.	2D	.	2b-y
.	2G	2d	2b-y
=26	=26	=26	=26
0r	2F	4d	2a
.	.	4c	.
.	2.D	4d	2a
.	.	4e	.
.	.	4f	4a
.	4E	4g	4g
.	4F	[2f	4a
.	4G	.	4b-y
=27	=27	=27	=27
1r	2A	2f]	4cc
.	.	.	4a
.	2B-y	4e	2.dd
.	.	4d	.
2r	1A	2e	.
.	.	.	8cc#iL
.	.	.	8bniJ
2A	.	2e	2cc#i
=28	=28	=28	=28
2B-y	1r	2d	2dd
2F	.	2f	2a
1G	2r	2d	2b-y
.	2B-y	2e	2g
=29	=29	=29	=29
1F	2c	2f	2a
.	2A	2c	2cc
1BB-y	2B-y	[1d	2.b-y
.	2F	.	.
.	.	.	4a
=30	=30	=30	=30
1BB-y	2.B-y	1d]	2g
.	.	.	1f
.	4A	.	.
1C	2G	1c	.
.	2G	.	2e
=31	=31	=31	=31
2r	0F	1A	1f
2F	.	.	.
2D	.	2r	2r
2BB-y	.	2d	2b-y
=32	=32	=32	=32
1.F	2r	2c	2a
.	2d	1A	2f
.	2c	.	1a
2F	2A	2c	.
=33	=33	=33	=33
1C	2c	2c	2g
.	2c	2G	2e
1E-X	2B-y	4G	1g
.	.	4A	.
.	2G	4B-y	.
.	.	4c	.
=34	=34	=34	=34
1BB-y	2B-y	1d	2f
.	2A	.	2b-y
1BB-y	2G	1d	2b-y
.	2F	.	2b-y
=35	=35	=35	=35
2C	1E	2c	2a
2C	.	2c	1g
1D	1D	1A	.
.	.	.	2f#i
=36	=36	=36	=36
2GG	2r	1G	1g
2GG	2D	.	.
2BB-y	2D	1r	1r
2BB-y	2D	.	.
=37	=37	=37	=37
2AA	2F	1r	0r
2BB-y	2F	.	.
2C	2E	2r	.
2C	2E	2G	.
=38	=38	=38	=38
1GG	2D	2B-y	1d
.	2G	2B-y	.
1r	2F	2A	2d
.	2G	2B-y	2d
=39	=39	=39	=39
0r	2A	2c	2f
.	2B-y	1d	2f
.	2G	.	2e
.	2A	2c#i	2e
=40	=40	=40	=40
2r	2D	2d	2d
2GG	2G	2B-y	2d
2D	2F	2A	2d
2GG	2G	2B-y	2d
=41	=41	=41	=41
2D	2A	2F	2f
2D	2B-y	2F	2f
2C	2B-y	2.G	2e
2C	2A	.	2e
.	.	4E	.
=42	=42	=42	=42
0BB-y	0B-y	1F	2d
.	.	.	2d
.	.	2r	2d
.	.	2G	2d
=43	=43	=43	=43
0r	0r	2A	2.f
.	.	2B-y	.
.	.	.	4g
.	.	2c	2a
.	.	2d	[2b-y
=44	=44	=44	=44
1r	2r	1A	4b-]
.	.	.	4a
.	2D	.	1a
1GG	2D	1B-y	.
.	2D	.	2g
=45	=45	=45	=45
2.D	2.F	2A	1a
.	.	2d	.
4E	4G	.	.
2F	2A	2c	1r
2G	[2B-y	[2e	.
=46	=46	=46	=46
2G	4B-]	4e]	0r
.	4A	4d	.
2F	1A	1d	.
1E	.	.	.
.	2G	2c#i	.
=47	=47	=47	=47
1D	2.A	2.d	1r
.	4B-y	8cL	.
.	.	8B-yJ	.
2r	2c	2A	2r
2D	2d	[2f	2a
=48	=48	=48	=48
1F	2d	2f]	2a
.	2c	2f	2a
1G	1B-y	2e-X	2g
.	.	[2d	2g
=49	=49	=49	=49
1D	1A	2d]	2.f
.	.	2d	.
.	.	.	4g
1r	2A	2c	4a
.	.	.	4f
.	[2G	2d	[2b-y
=50	=50	=50	=50
0r	4G]	2G	4b-]
.	4F	.	4a
.	4E	2.d	4g
.	4D	.	4f
.	1E	.	1g
.	.	4c#i	.
.	.	4c#i	.
.	.	8BniL	.
.	.	8c#iJ	.
=51	=51	=51	=51
2r	1D	0d	1f
2A	.	.	.
2B-y	2r	.	1r
2A	2D	.	.
=52	=52	=52	=52
2.G	2.B-y	2r	0r
.	.	2G	.
4F	4A	.	.
2E-X	2G	2.B-y	.
2D	2F	.	.
.	.	4B-y	.
=53	=53	=53	=53
2C	2E	2A	1r
2BB-y	1D	2G	.
1AA	.	2G	2r
.	2C	2F#i	2a
=54	=54	=54	=54
1.GG	2D	2G	2.b-y
.	2G	1d	.
.	.	.	4a
.	2.B-y	.	2g
2BB-y	.	2d	2f
.	4A	.	.
=55	=55	=55	=55
2C	2G	2c	2e
2D	2F	2B-y	1d
1AA	2E	1A	.
.	2E	.	2c#i
=56	=56	=56	=56
2r	2D	1F	1d
2D	2A	.	.
1D	2B-y	2r	2r
.	[2A	2f	2dd
=57	=57	=57	=57
1BB-y	4A]	2f	2dd
.	4G	.	.
.	4G	2d	2dd
.	4F	.	.
2AA	1A	2e	4cc
.	.	.	4b-y
2A	.	2c	4a
.	.	.	4g
=58	=58	=58	=58
1B-y	2r	2d	2f
.	2d	1f	2b-y
1G	2d	.	2b-y
.	2B-y	2e	2b-y
=59	=59	=59	=59
2F	2c	2f	4a
.	.	.	4g
2F	2A	2d	4f
.	.	.	4e
2G	2B-y	4d	2d
.	.	4c	.
2G	[2d	4B-y	2g
.	.	4A	.
=60	=60	=60	=60
1E	2d]	2G	2g
.	2c#i	2G	2g
2D	[1d	1A	4f
.	.	.	4e
2D	.	.	4d
.	.	.	4c
=61	=61	=61	=61
2G	1d]	2G	2B-y
2G	.	2d	2b-y
1E-X	2r	2g	2b-y
.	2G	2g	2b-y
=62	=62	=62	=62
1C	2c	1e	2a
.	2c	.	1g
1D	1A	1d	.
.	.	.	2f#i
=63	=63	=63	=63
00GGl	00Gl	00dl	00gl
==	==	==	==
*-	*-	*-	*-
!!!system-decoration: [*]
!!!RDF**kern: i = editorial accidental
!!!RDF**kern: l = terminal long
!!!ENC: Benjamin Ory
!!!END: 2020/12/18
!!!EED: Benjamin Ory
!!!EEV: 2021/04/30
!!!YEC: Copyright 2021 Benjamin Ory, All Rights Reserved
!!!ONB: Translated from MusicXML on 2021/04/30
